public/vercel.svg

<svg xmlns="http://www.w3.org/2000/svg" width="512" height="116" fill="none"><g clip-path="url(#a)"><path fill="#fff" d="M255.42 28.976c-19.993 0-34.408 13.039-34.408 32.597 0 19.559 16.226 32.598 36.22 32.598 12.079 0 22.727-4.781 29.32-12.84l-13.855-8.004c-3.658 4.002-9.218 6.338-15.466 6.338-8.674 0-16.045-4.527-18.78-11.771h50.744c.399-2.029.634-4.13.634-6.339 0-19.54-14.415-32.579-34.409-32.579m-17.13 26.259c2.263-7.226 8.457-11.772 17.113-11.772 8.675 0 14.869 4.546 17.114 11.772zm212.138-26.26c-19.993 0-34.409 13.04-34.409 32.598 0 19.559 16.226 32.598 36.22 32.598 12.079 0 22.727-4.781 29.32-12.84l-13.855-8.004c-3.658 4.002-9.217 6.338-15.465 6.338-8.675 0-16.046-4.527-18.78-11.771H484.2c.399-2.029.634-4.13.634-6.339 0-19.54-14.415-32.58-34.408-32.58m-17.114 26.26c2.264-7.226 8.457-11.772 17.114-11.772 8.674 0 14.868 4.546 17.113 11.772zm-70.683 6.338c0 10.866 7.1 18.11 18.11 18.11 7.461 0 13.057-3.386 15.937-8.91l13.908 8.023c-5.759 9.598-16.552 15.375-29.845 15.375-20.011 0-34.408-13.04-34.408-32.598s14.415-32.597 34.408-32.597c13.293 0 24.068 5.777 29.845 15.375l-13.908 8.023c-2.88-5.524-8.476-8.91-15.937-8.91-10.992 0-18.11 7.242-18.11 18.109M512 9.055V92.36h-16.299V9.055zM66.916 0l66.915 115.903H0zm167.298 9.055-50.182 86.927-50.183-86.927h18.817l31.366 54.33 31.366-54.33zm106.685 21.732v17.548c-1.811-.525-3.73-.887-5.795-.887-10.522 0-18.11 7.244-18.11 18.11V92.36h-16.299V30.787h16.299v16.66c0-9.2 10.703-16.66 23.905-16.66"/></g><defs><clipPath id="a"><path fill="#fff" d="M0 0h512v116H0z"/></clipPath></defs></svg>

<svg width="512" height="116" viewBox="0 0 512 116" fill="none" xmlns="http://www.w3.org/2000/svg">
<g clip-path="url(#clip0_1068_19)">
<path d="M255.42 28.976C235.427 28.976 221.012 42.015 221.012 61.573C221.012 81.132 237.238 94.171 257.232 94.171C269.311 94.171 279.959 89.39 286.552 81.331L272.697 73.327C269.039 77.329 263.479 79.665 257.231 79.665C248.557 79.665 241.186 75.138 238.451 67.894H289.195C289.594 65.865 289.829 63.764 289.829 61.555C289.829 42.015 275.414 28.976 255.42 28.976ZM238.29 55.235C240.553 48.009 246.747 43.463 255.403 43.463C264.078 43.463 270.272 48.009 272.517 55.235H238.29ZM450.428 28.975C430.435 28.975 416.019 42.015 416.019 61.573C416.019 81.132 432.245 94.171 452.239 94.171C464.318 94.171 474.966 89.39 481.559 81.331L467.704 73.327C464.046 77.329 458.487 79.665 452.239 79.665C443.564 79.665 436.193 75.138 433.459 67.894H484.2C484.599 65.865 484.834 63.764 484.834 61.555C484.834 42.015 470.419 28.975 450.426 28.975M433.312 55.235C435.576 48.009 441.769 43.463 450.426 43.463C459.1 43.463 465.294 48.009 467.539 55.235H433.312ZM362.629 61.573C362.629 72.439 369.729 79.683 380.739 79.683C388.2 79.683 393.796 76.297 396.676 70.773L410.584 78.796C404.825 88.394 394.032 94.171 380.739 94.171C360.728 94.171 346.331 81.131 346.331 61.573C346.331 42.015 360.746 28.976 380.739 28.976C394.032 28.976 404.807 34.753 410.584 44.351L396.676 52.374C393.796 46.85 388.2 43.464 380.739 43.464C369.747 43.464 362.629 50.706 362.629 61.573ZM512 9.055V92.36H495.701V9.055H512ZM66.916 0L133.831 115.903H0L66.916 0ZM234.214 9.055L184.032 95.982L133.849 9.055H152.666L184.032 63.385L215.398 9.055H234.214ZM340.899 30.787V48.335C339.088 47.81 337.169 47.448 335.104 47.448C324.582 47.448 316.994 54.692 316.994 65.558V92.36H300.695V30.787H316.994V47.447C316.994 38.247 327.697 30.787 340.899 30.787Z" fill="white"/>
</g>
<defs>
<clipPath id="clip0_1068_19">
<rect width="512" height="116" fill="white"/>
</clipPath>
</defs>
</svg>
